X: 1
T: Scatter the Mud
R: jig
B: Francis O'Neill: "The Dance Music of Ireland" (1907) no. 187
S: Version in the Milford Contra Dance tunebook.
Z: 2016 John Chambers <jc:trillian.mit.edu>
M: 6/8
L: 1/8
K: Ador
|:\
"Am"eAA {d}B2A | eAA ABd | eAA {d}B2A | "G"dBG GBd |\
"Am"eAA {d}B2A | eAA AGE | "G"GAB dge | dBA "Am"A3 :|
|:\
"Am"eaa egg | "G"dBA ABd | "Am"eaa egg | "G"dBA G3 |\
"Am"eaf gfg | "G"dBA AGE | GAB dge | dBA "Am"A3 :|
